sacjatek/assets/icons/user-add.svg

<svg xmlns="http://www.w3.org/2000/svg" width="512" height="512" viewBox="0 0 24 24"><path d="M23 11h-2V9a1 1 0 0 0-2 0v2h-2a1 1 0 0 0 0 2h2v2a1 1 0 0 0 2 0v-2h2a1 1 0 0 0 0-2ZM9 12a6 6 0 1 0-6-6 6.006 6.006 0 0 0 6 6ZM9 2a4 4 0 1 1-4 4 4 4 0 0 1 4-4ZM9 14a9.01 9.01 0 0 0-9 9 1 1 0 0 0 2 0 7 7 0 0 1 14 0 1 1 0 0 0 2 0 9.01 9.01 0 0 0-9-9Z"/></svg>

<?xml version="1.0" encoding="UTF-8"?>
<svg xmlns="http://www.w3.org/2000/svg" id="Outline" viewBox="0 0 24 24" width="512" height="512"><path d="M23,11H21V9a1,1,0,0,0-2,0v2H17a1,1,0,0,0,0,2h2v2a1,1,0,0,0,2,0V13h2a1,1,0,0,0,0-2Z"/><path d="M9,12A6,6,0,1,0,3,6,6.006,6.006,0,0,0,9,12ZM9,2A4,4,0,1,1,5,6,4,4,0,0,1,9,2Z"/><path d="M9,14a9.01,9.01,0,0,0-9,9,1,1,0,0,0,2,0,7,7,0,0,1,14,0,1,1,0,0,0,2,0A9.01,9.01,0,0,0,9,14Z"/></svg>
